!!!OTL: Der Grenadier Latour d'Auvergne (3-7), S. 19f
!!!id: K1144
**kern
*clefG2
*k[b-e-]
*B-:
{8f
8g
8a
=1
4.b-
8b-
8.cc
8b-
16a
8g
=2
4g
4f}
8r
=3
{8dd
8dd
8dd
=4
4.dd
8cc
8b-
8a
8g
8f
=5
2cc}
8r
=6
{8f
8g
8a
=7
4.b-
8b-
8.cc
16b-
8.a
16g
=8
4g
4f}
8r
=9
{8f
8a
8b-
=10
8cc
4ff
8a
8cc
8cc
16b-
16a
8g
=11
2f}
8r
=12
{8f
8g
8f
=13
4.cc
8cc
8cc
8ee-
8dd
8cc
=14
2b-}
8r
=15
{8dd
8dd
8dd
=16
4.cc
8cc
8b-
8a
8g
8a
=17
2b-}
8r
=18
{8f
8g
8f
=19
4.cc
8cc
8cc
8ee-
8dd
8cc
=20
2ff}
=21
{2ee-
=22
2g
2cc
=23
2b-}
8r
=24
{8f
8e
8f
=25
2dd
2cc
=26
2b-}
8r
==
*-
!!!minrhy: 16
!!!meters: 4/4 ]  ZZ[9
!!!cut: Der Grenadier Latour d'Auvergne (3-7), S. 19f
!!!reg: Luxemburg
!!!trd: KINTZELE, Guillaume: An der Ucht, Bd. 3 Luxemburg 1928
!!!rhy1: X_X_X_  X__.X_X_.X_XX_  X__X__0_
!!!rhy2: X_X_X_  X__.X_X_X_X_X_  X___0_
!!!key: K1144  16 Bb 4/4 ]  ZZ[9
!!!mod: ACHTTONSKALA DUR ?]  AMBITUS[9b
!!!kad: -52-5-511511
!!!akz: 12-6_312_12-6_22-5_221_211_225_4-621_321_
!!!fot: 'a__b__a__c__cw_d__cw_e__f__
!!!for: 'a__b__c__d__b__b__bv_e__ev_
!!!fok: '^__Vd_^__^__^a_Vd_~a_Vd_^a_
!! PHRAS[AUFTAKTIG]
!!!fkt: historisches, Kriegs- und Soldatenlied
!!!bem: in der Quelle mit einer 2. Stimme versehen
!! KINTZELE
!! PR[9] 2K[7] 2G[35] 3K[2] 3G[0] 4A[2] 4Ü[0] 5A[0] 6K[0] 6G[0]
!! 7K[0] 7G[0] 8A[0] MEHR[0] SI[47] ABS[43] SR[42] SP[5]
!! ST[10] 2k[5] 2g[30] 3k[7] 3g[2] 4d[0] 4ü[0] 5d[0] 6k[0] 6g[0]
!! 7k[0] 7g[0] 8d[0] mehr[0] si[44] dm[+3] sr[35] sp[9]
!! 1F[73] 2F[23] 3F[5] 4F[0] LF[0] 2P[0] 3P[0] 4P[0] TRI[0] DF[3] AB[44]
!! TF[0] U3K[0] U3[0] U4[0] U4Ü[0] U5[0] U6K[0] U6[0] U7K[0] U7[0]
!! N1[9] N2K[0] N2[25] N3K[0] N3[20] N4[18] N4Ü[0] N5[20] N6K[0] N6[7]
!!!n7k: 0] N7[0] O1[0] O2K[0] O2[0] O3K[0] O3[0] HÖ[0
